images/icons/maintenance-home.svg

<svg height="32pt" viewBox="0 0 32 32" width="32pt" xmlns="http://www.w3.org/2000/svg"><g fill="#fff"><path d="m10.5 8.5c0 1.101562.898438 2 2 2s2-.898438 2-2-.898438-2-2-2-2 .898438-2 2zm3 0c0 .550781-.449219 1-1 1s-1-.449219-1-1 .449219-1 1-1 1 .449219 1 1zm0 0"/><path d="m31.5 15.5v-3h-1.234375l-4-6h-7.058594l-5.5-5.5c-.644531-.644531-1.769531-.644531-2.414062 0l-10.441407 10.441406c-.226562.226563-.351562.527344-.351562.851563 0 .664062.542969 1.207031 1.207031 1.207031h.792969v11h-.5c-.828125 0-1.5.671875-1.5 1.5v4c0 .828125.671875 1.5 1.5 1.5h12.152344l3-2h8.640625l.558593.558594c.285157.285156.660157.441406 1.0625.441406h2.585938c.828125 0 1.5-.671875 1.5-1.5v-2c0-.652344-.417969-1.199219-1-1.40625v-10.09375zm-1-1h-8v-1h8zm-5 14h-8v-1h8zm-12-3v1h-7c-.550781 0-1 .449219-1 1v1c0 .550781.449219 1 1 1h7v1h-9v-5zm-3-1h-4v-8h4zm3 4h-7v-1h7zm1-2.566406 2 1.332031v1.46875l-2 1.332031zm11.234375-18.433594 3.332031 5h-4.582031c.007813-.066406.015625-.136719.015625-.207031 0-.324219-.125-.625-.351562-.851563l-3.941407-3.941406zm-24.234375 4.792969c0-.054688.023438-.109375.058594-.144531l10.441406-10.441407c.132812-.132812.3125-.207031.5-.207031s.367188.074219.5.207031l10.441406 10.441407c.035156.035156.058594.089843.058594.144531 0 .113281-.09375.207031-.207031.207031h-.914063l-9.878906-9.878906-9.878906 9.878906h-.914063c-.113281 0-.207031-.09375-.207031-.207031zm19.464844.207031h-16.929688l8.464844-8.464844zm-17.464844 1h18v13h-4.347656l-3-2h-2.652344v-9h-6v9h-2zm-2 16.5v-4c0-.277344.222656-.5.5-.5h1.5v5h-1.5c-.277344 0-.5-.222656-.5-.5zm29-1c0 .277344-.222656.5-.5.5h-2.585938c-.132812 0-.257812-.050781-.355468-.148438l-.558594-.558593v-1.585938l.558594-.558593c.097656-.097657.222656-.148438.355468-.148438h2.585938c.277344 0 .5.222656.5.5zm-1-3.5h-2.085938c-.398437 0-.777343.15625-1.0625.441406l-.558593.558594h-3.292969v-11h7zm0 0"/><path d="m19.5 15.5h-7v7h7zm-1 3h-2v-2h2zm-3-2v2h-2v-2zm-2 3h2v2h-2zm3 2v-2h2v2zm0 0"/><path d="m28.5 23.5v-6h-5v6zm-4-5h3v4h-3zm0 0"/></g></svg>

<?xml version="1.0" encoding="UTF-8"?>
<svg xmlns="http://www.w3.org/2000/svg" xmlns:xlink="http://www.w3.org/1999/xlink" width="32pt" height="32pt" viewBox="0 0 32 32" version="1.1">
<g id="surface1">
<path style=" stroke:none;fill-rule:nonzero;fill:rgb(255,255,255);fill-opacity:1;" d="M 10.5 8.5 C 10.5 9.601562 11.398438 10.5 12.5 10.5 C 13.601562 10.5 14.5 9.601562 14.5 8.5 C 14.5 7.398438 13.601562 6.5 12.5 6.5 C 11.398438 6.5 10.5 7.398438 10.5 8.5 Z M 13.5 8.5 C 13.5 9.050781 13.050781 9.5 12.5 9.5 C 11.949219 9.5 11.5 9.050781 11.5 8.5 C 11.5 7.949219 11.949219 7.5 12.5 7.5 C 13.050781 7.5 13.5 7.949219 13.5 8.5 Z M 13.5 8.5 "/>
<path style=" stroke:none;fill-rule:nonzero;fill:rgb(255,255,255);fill-opacity:1;" d="M 31.5 15.5 L 31.5 12.5 L 30.265625 12.5 L 26.265625 6.5 L 19.207031 6.5 L 13.707031 1 C 13.0625 0.355469 11.9375 0.355469 11.292969 1 L 0.851562 11.441406 C 0.625 11.667969 0.5 11.96875 0.5 12.292969 C 0.5 12.957031 1.042969 13.5 1.707031 13.5 L 2.5 13.5 L 2.5 24.5 L 2 24.5 C 1.171875 24.5 0.5 25.171875 0.5 26 L 0.5 30 C 0.5 30.828125 1.171875 31.5 2 31.5 L 14.152344 31.5 L 17.152344 29.5 L 25.792969 29.5 L 26.351562 30.058594 C 26.636719 30.34375 27.011719 30.5 27.414062 30.5 L 30 30.5 C 30.828125 30.5 31.5 29.828125 31.5 29 L 31.5 27 C 31.5 26.347656 31.082031 25.800781 30.5 25.59375 L 30.5 15.5 Z M 30.5 14.5 L 22.5 14.5 L 22.5 13.5 L 30.5 13.5 Z M 25.5 28.5 L 17.5 28.5 L 17.5 27.5 L 25.5 27.5 Z M 13.5 25.5 L 13.5 26.5 L 6.5 26.5 C 5.949219 26.5 5.5 26.949219 5.5 27.5 L 5.5 28.5 C 5.5 29.050781 5.949219 29.5 6.5 29.5 L 13.5 29.5 L 13.5 30.5 L 4.5 30.5 L 4.5 25.5 Z M 10.5 24.5 L 6.5 24.5 L 6.5 16.5 L 10.5 16.5 Z M 13.5 28.5 L 6.5 28.5 L 6.5 27.5 L 13.5 27.5 Z M 14.5 25.933594 L 16.5 27.265625 L 16.5 28.734375 L 14.5 30.066406 Z M 25.734375 7.5 L 29.066406 12.5 L 24.484375 12.5 C 24.492188 12.433594 24.5 12.363281 24.5 12.292969 C 24.5 11.96875 24.375 11.667969 24.148438 11.441406 L 20.207031 7.5 Z M 1.5 12.292969 C 1.5 12.238281 1.523438 12.183594 1.558594 12.148438 L 12 1.707031 C 12.132812 1.574219 12.3125 1.5 12.5 1.5 C 12.6875 1.5 12.867188 1.574219 13 1.707031 L 23.441406 12.148438 C 23.476562 12.183594 23.5 12.238281 23.5 12.292969 C 23.5 12.40625 23.40625 12.5 23.292969 12.5 L 22.378906 12.5 L 12.5 2.621094 L 2.621094 12.5 L 1.707031 12.5 C 1.59375 12.5 1.5 12.40625 1.5 12.292969 Z M 20.964844 12.5 L 4.035156 12.5 L 12.5 4.035156 Z M 3.5 13.5 L 21.5 13.5 L 21.5 26.5 L 17.152344 26.5 L 14.152344 24.5 L 11.5 24.5 L 11.5 15.5 L 5.5 15.5 L 5.5 24.5 L 3.5 24.5 Z M 1.5 30 L 1.5 26 C 1.5 25.722656 1.722656 25.5 2 25.5 L 3.5 25.5 L 3.5 30.5 L 2 30.5 C 1.722656 30.5 1.5 30.277344 1.5 30 Z M 30.5 29 C 30.5 29.277344 30.277344 29.5 30 29.5 L 27.414062 29.5 C 27.28125 29.5 27.15625 29.449219 27.058594 29.351562 L 26.5 28.792969 L 26.5 27.207031 L 27.058594 26.648438 C 27.15625 26.550781 27.28125 26.5 27.414062 26.5 L 30 26.5 C 30.277344 26.5 30.5 26.722656 30.5 27 Z M 29.5 25.5 L 27.414062 25.5 C 27.015625 25.5 26.636719 25.65625 26.351562 25.941406 L 25.792969 26.5 L 22.5 26.5 L 22.5 15.5 L 29.5 15.5 Z M 29.5 25.5 "/>
<path style=" stroke:none;fill-rule:nonzero;fill:rgb(255,255,255);fill-opacity:1;" d="M 19.5 15.5 L 12.5 15.5 L 12.5 22.5 L 19.5 22.5 Z M 18.5 18.5 L 16.5 18.5 L 16.5 16.5 L 18.5 16.5 Z M 15.5 16.5 L 15.5 18.5 L 13.5 18.5 L 13.5 16.5 Z M 13.5 19.5 L 15.5 19.5 L 15.5 21.5 L 13.5 21.5 Z M 16.5 21.5 L 16.5 19.5 L 18.5 19.5 L 18.5 21.5 Z M 16.5 21.5 "/>
<path style=" stroke:none;fill-rule:nonzero;fill:rgb(255,255,255);fill-opacity:1;" d="M 28.5 23.5 L 28.5 17.5 L 23.5 17.5 L 23.5 23.5 Z M 24.5 18.5 L 27.5 18.5 L 27.5 22.5 L 24.5 22.5 Z M 24.5 18.5 "/>
</g>
</svg>
